<?xml version="1.0" encoding="UTF-8"?>
<map version="1.0.0" orientation="orthogonal" renderorder="right-down" width="50" height="10" tilewidth="16" tileheight="16" nextobjectid="69">
 <tileset firstgid="1" name="tail1" tilewidth="16" tileheight="16" tilecount="702" columns="39">
  <image source="tileset.png" trans="6d9fb9" width="630" height="302"/>
 </tileset>
 <objectgroup name="Объекты">
  <object id="2" name="coin" gid="34" x="159.667" y="60.3333" width="16" height="16"/>
  <object id="3" name="block" x="0" y="144" width="800" height="16"/>
  <object id="4" name="player" gid="274" x="30.6667" y="127.333" width="16" height="16"/>
  <object id="8" name="block" x="0" y="0" width="16" height="160"/>
  <object id="9" name="block" x="0" y="0" width="800" height="16"/>
  <object id="10" name="block" x="784" y="0" width="16" height="160"/>
  <object id="13" name="coin" gid="151" x="478.667" y="143.667" width="16" height="16"/>
  <object id="14" name="block" x="592" y="16" width="192" height="16"/>
  <object id="15" name="block" x="592.667" y="32.6667" width="16" height="80"/>
  <object id="16" name="enemy" gid="217" x="447.333" y="144" width="16" height="16"/>
  <object id="17" name="enemy" gid="217" x="383.333" y="143.333" width="16" height="16"/>
  <object id="18" name="enemy" gid="217" x="511.333" y="143.666" width="16" height="16"/>
  <object id="20" name="coin" gid="34" x="751" y="90" width="16" height="16"/>
  <object id="21" name="coin" gid="34" x="676.667" y="131.667" width="16" height="16"/>
  <object id="22" name="coin" gid="34" x="698" y="99" width="16" height="16"/>
  <object id="23" name="block" x="736.667" y="96.6667" width="48" height="48"/>
  <object id="24" name="enemy" gid="31" x="630" y="144.667" width="16" height="16"/>
  <object id="25" name="block" x="0.666667" y="147" width="799.333" height="12.6667"/>
  <object id="61" name="block" x="353.333" y="48.6667" width="47.3333" height="16"/>
  <object id="63" name="block" x="159" y="62.6667" width="47.3333" height="16"/>
  <object id="64" name="block" x="225" y="96" width="47.3333" height="16"/>
  <object id="65" name="enemy" gid="217" x="127.333" y="112" width="16" height="16"/>
  <object id="66" name="block" x="305" y="112" width="30" height="33.3333"/>
  <object id="67" name="coin" gid="34" x="311.333" y="109.333" width="16" height="16"/>
  <object id="68" name="coin" gid="427" x="384" y="49.3333" width="16" height="16"/>
 </objectgroup>
 <layer name="Тайлы" width="50" height="10">
  <data>
   <tile gid="625"/>
   <tile gid="625"/>
   <tile gid="625"/>
   <tile gid="625"/>
   <tile gid="625"/>
   <tile gid="625"/>
   <tile gid="625"/>
   <tile gid="625"/>
   <tile gid="625"/>
   <tile gid="625"/>
   <tile gid="625"/>
   <tile gid="625"/>
   <tile gid="625"/>
   <tile gid="625"/>
   <tile gid="625"/>
   <tile gid="625"/>
   <tile gid="625"/>
   <tile gid="625"/>
   <tile gid="625"/>
   <tile gid="625"/>
   <tile gid="625"/>
   <tile gid="625"/>
   <tile gid="625"/>
   <tile gid="625"/>
   <tile gid="625"/>
   <tile gid="625"/>
   <tile gid="625"/>
   <tile gid="625"/>
   <tile gid="625"/>
   <tile gid="625"/>
   <tile gid="625"/>
   <tile gid="625"/>
   <tile gid="625"/>
   <tile gid="625"/>
   <tile gid="625"/>
   <tile gid="625"/>
   <tile gid="625"/>
   <tile gid="625"/>
   <tile gid="625"/>
   <tile gid="625"/>
   <tile gid="625"/>
   <tile gid="625"/>
   <tile gid="625"/>
   <tile gid="625"/>
   <tile gid="625"/>
   <tile gid="625"/>
   <tile gid="625"/>
   <tile gid="625"/>
   <tile gid="625"/>
   <tile gid="625"/>
   <tile gid="625"/>
   <tile gid="625"/>
   <tile gid="625"/>
   <tile gid="625"/>
   <tile gid="625"/>
   <tile gid="625"/>
   <tile gid="625"/>
   <tile gid="625"/>
   <tile gid="625"/>
   <tile gid="625"/>
   <tile gid="625"/>
   <tile gid="625"/>
   <tile gid="625"/>
   <tile gid="625"/>
   <tile gid="625"/>
   <tile gid="625"/>
   <tile gid="625"/>
   <tile gid="625"/>
   <tile gid="625"/>
   <tile gid="625"/>
   <tile gid="625"/>
   <tile gid="625"/>
   <tile gid="625"/>
   <tile gid="625"/>
   <tile gid="625"/>
   <tile gid="625"/>
   <tile gid="625"/>
   <tile gid="625"/>
   <tile gid="625"/>
   <tile gid="625"/>
   <tile gid="625"/>
   <tile gid="625"/>
   <tile gid="625"/>
   <tile gid="625"/>
   <tile gid="625"/>
   <tile gid="0"/>
   <tile gid="0"/>
   <tile gid="486"/>
   <tile gid="487"/>
   <tile gid="487"/>
   <tile gid="487"/>
   <tile gid="487"/>
   <tile gid="487"/>
   <tile gid="487"/>
   <tile gid="487"/>
   <tile gid="487"/>
   <tile gid="487"/>
   <tile gid="487"/>
   <tile gid="487"/>
   <tile gid="488"/>
   <tile gid="625"/>
   <tile gid="625"/>
   <tile gid="625"/>
   <tile gid="625"/>
   <tile gid="625"/>
   <tile gid="625"/>
   <tile gid="625"/>
   <tile gid="0"/>
   <tile gid="0"/>
   <tile gid="0"/>
   <tile gid="625"/>
   <tile gid="625"/>
   <tile gid="356"/>
   <tile gid="357"/>
   <tile gid="625"/>
   <tile gid="625"/>
   <tile gid="625"/>
   <tile gid="625"/>
   <tile gid="625"/>
   <tile gid="625"/>
   <tile gid="625"/>
   <tile gid="625"/>
   <tile gid="625"/>
   <tile gid="625"/>
   <tile gid="625"/>
   <tile gid="625"/>
   <tile gid="625"/>
   <tile gid="625"/>
   <tile gid="625"/>
   <tile gid="625"/>
   <tile gid="625"/>
   <tile gid="625"/>
   <tile gid="625"/>
   <tile gid="625"/>
   <tile gid="625"/>
   <tile gid="0"/>
   <tile gid="0"/>
   <tile gid="525"/>
   <tile gid="0"/>
   <tile gid="0"/>
   <tile gid="0"/>
   <tile gid="0"/>
   <tile gid="0"/>
   <tile gid="0"/>
   <tile gid="0"/>
   <tile gid="0"/>
   <tile gid="0"/>
   <tile gid="0"/>
   <tile gid="0"/>
   <tile gid="527"/>
   <tile gid="625"/>
   <tile gid="0"/>
   <tile gid="0"/>
   <tile gid="0"/>
   <tile gid="0"/>
   <tile gid="625"/>
   <tile gid="625"/>
   <tile gid="625"/>
   <tile gid="625"/>
   <tile gid="625"/>
   <tile gid="625"/>
   <tile gid="625"/>
   <tile gid="395"/>
   <tile gid="396"/>
   <tile gid="625"/>
   <tile gid="625"/>
   <tile gid="625"/>
   <tile gid="625"/>
   <tile gid="625"/>
   <tile gid="625"/>
   <tile gid="625"/>
   <tile gid="625"/>
   <tile gid="12"/>
   <tile gid="12"/>
   <tile gid="12"/>
   <tile gid="625"/>
   <tile gid="625"/>
   <tile gid="625"/>
   <tile gid="625"/>
   <tile gid="625"/>
   <tile gid="625"/>
   <tile gid="625"/>
   <tile gid="625"/>
   <tile gid="625"/>
   <tile gid="625"/>
   <tile gid="0"/>
   <tile gid="0"/>
   <tile gid="525"/>
   <tile gid="0"/>
   <tile gid="0"/>
   <tile gid="0"/>
   <tile gid="0"/>
   <tile gid="0"/>
   <tile gid="0"/>
   <tile gid="0"/>
   <tile gid="0"/>
   <tile gid="0"/>
   <tile gid="0"/>
   <tile gid="0"/>
   <tile gid="527"/>
   <tile gid="625"/>
   <tile gid="0"/>
   <tile gid="0"/>
   <tile gid="0"/>
   <tile gid="625"/>
   <tile gid="625"/>
   <tile gid="0"/>
   <tile gid="0"/>
   <tile gid="0"/>
   <tile gid="625"/>
   <tile gid="12"/>
   <tile gid="12"/>
   <tile gid="12"/>
   <tile gid="625"/>
   <tile gid="625"/>
   <tile gid="625"/>
   <tile gid="625"/>
   <tile gid="625"/>
   <tile gid="625"/>
   <tile gid="625"/>
   <tile gid="625"/>
   <tile gid="625"/>
   <tile gid="625"/>
   <tile gid="625"/>
   <tile gid="625"/>
   <tile gid="625"/>
   <tile gid="625"/>
   <tile gid="625"/>
   <tile gid="625"/>
   <tile gid="625"/>
   <tile gid="625"/>
   <tile gid="625"/>
   <tile gid="625"/>
   <tile gid="625"/>
   <tile gid="625"/>
   <tile gid="0"/>
   <tile gid="0"/>
   <tile gid="525"/>
   <tile gid="0"/>
   <tile gid="0"/>
   <tile gid="0"/>
   <tile gid="0"/>
   <tile gid="0"/>
   <tile gid="0"/>
   <tile gid="0"/>
   <tile gid="0"/>
   <tile gid="0"/>
   <tile gid="0"/>
   <tile gid="0"/>
   <tile gid="527"/>
   <tile gid="625"/>
   <tile gid="625"/>
   <tile gid="625"/>
   <tile gid="625"/>
   <tile gid="625"/>
   <tile gid="625"/>
   <tile gid="625"/>
   <tile gid="625"/>
   <tile gid="0"/>
   <tile gid="625"/>
   <tile gid="0"/>
   <tile gid="0"/>
   <tile gid="0"/>
   <tile gid="625"/>
   <tile gid="625"/>
   <tile gid="625"/>
   <tile gid="625"/>
   <tile gid="625"/>
   <tile gid="625"/>
   <tile gid="625"/>
   <tile gid="625"/>
   <tile gid="625"/>
   <tile gid="625"/>
   <tile gid="625"/>
   <tile gid="625"/>
   <tile gid="625"/>
   <tile gid="625"/>
   <tile gid="625"/>
   <tile gid="625"/>
   <tile gid="625"/>
   <tile gid="625"/>
   <tile gid="625"/>
   <tile gid="625"/>
   <tile gid="625"/>
   <tile gid="625"/>
   <tile gid="0"/>
   <tile gid="0"/>
   <tile gid="525"/>
   <tile gid="0"/>
   <tile gid="0"/>
   <tile gid="0"/>
   <tile gid="0"/>
   <tile gid="0"/>
   <tile gid="0"/>
   <tile gid="0"/>
   <tile gid="0"/>
   <tile gid="0"/>
   <tile gid="0"/>
   <tile gid="0"/>
   <tile gid="527"/>
   <tile gid="625"/>
   <tile gid="625"/>
   <tile gid="625"/>
   <tile gid="625"/>
   <tile gid="625"/>
   <tile gid="625"/>
   <tile gid="0"/>
   <tile gid="0"/>
   <tile gid="0"/>
   <tile gid="625"/>
   <tile gid="625"/>
   <tile gid="293"/>
   <tile gid="625"/>
   <tile gid="625"/>
   <tile gid="12"/>
   <tile gid="12"/>
   <tile gid="12"/>
   <tile gid="625"/>
   <tile gid="625"/>
   <tile gid="625"/>
   <tile gid="0"/>
   <tile gid="0"/>
   <tile gid="625"/>
   <tile gid="625"/>
   <tile gid="625"/>
   <tile gid="625"/>
   <tile gid="625"/>
   <tile gid="625"/>
   <tile gid="625"/>
   <tile gid="625"/>
   <tile gid="625"/>
   <tile gid="625"/>
   <tile gid="625"/>
   <tile gid="625"/>
   <tile gid="625"/>
   <tile gid="0"/>
   <tile gid="0"/>
   <tile gid="525"/>
   <tile gid="0"/>
   <tile gid="0"/>
   <tile gid="0"/>
   <tile gid="0"/>
   <tile gid="0"/>
   <tile gid="0"/>
   <tile gid="0"/>
   <tile gid="0"/>
   <tile gid="603"/>
   <tile gid="604"/>
   <tile gid="605"/>
   <tile gid="527"/>
   <tile gid="625"/>
   <tile gid="625"/>
   <tile gid="625"/>
   <tile gid="625"/>
   <tile gid="625"/>
   <tile gid="625"/>
   <tile gid="625"/>
   <tile gid="625"/>
   <tile gid="625"/>
   <tile gid="625"/>
   <tile gid="625"/>
   <tile gid="332"/>
   <tile gid="625"/>
   <tile gid="625"/>
   <tile gid="625"/>
   <tile gid="0"/>
   <tile gid="0"/>
   <tile gid="0"/>
   <tile gid="625"/>
   <tile gid="12"/>
   <tile gid="12"/>
   <tile gid="0"/>
   <tile gid="625"/>
   <tile gid="0"/>
   <tile gid="0"/>
   <tile gid="625"/>
   <tile gid="625"/>
   <tile gid="625"/>
   <tile gid="625"/>
   <tile gid="625"/>
   <tile gid="625"/>
   <tile gid="625"/>
   <tile gid="625"/>
   <tile gid="625"/>
   <tile gid="625"/>
   <tile gid="625"/>
   <tile gid="0"/>
   <tile gid="0"/>
   <tile gid="0"/>
   <tile gid="0"/>
   <tile gid="0"/>
   <tile gid="0"/>
   <tile gid="0"/>
   <tile gid="0"/>
   <tile gid="0"/>
   <tile gid="0"/>
   <tile gid="642"/>
   <tile gid="643"/>
   <tile gid="644"/>
   <tile gid="527"/>
   <tile gid="625"/>
   <tile gid="625"/>
   <tile gid="625"/>
   <tile gid="625"/>
   <tile gid="625"/>
   <tile gid="141"/>
   <tile gid="625"/>
   <tile gid="625"/>
   <tile gid="103"/>
   <tile gid="625"/>
   <tile gid="625"/>
   <tile gid="371"/>
   <tile gid="625"/>
   <tile gid="625"/>
   <tile gid="625"/>
   <tile gid="0"/>
   <tile gid="0"/>
   <tile gid="0"/>
   <tile gid="625"/>
   <tile gid="51"/>
   <tile gid="51"/>
   <tile gid="0"/>
   <tile gid="625"/>
   <tile gid="0"/>
   <tile gid="625"/>
   <tile gid="625"/>
   <tile gid="625"/>
   <tile gid="625"/>
   <tile gid="625"/>
   <tile gid="625"/>
   <tile gid="625"/>
   <tile gid="625"/>
   <tile gid="625"/>
   <tile gid="625"/>
   <tile gid="625"/>
   <tile gid="625"/>
   <tile gid="0"/>
   <tile gid="0"/>
   <tile gid="0"/>
   <tile gid="0"/>
   <tile gid="0"/>
   <tile gid="0"/>
   <tile gid="0"/>
   <tile gid="0"/>
   <tile gid="0"/>
   <tile gid="0"/>
   <tile gid="642"/>
   <tile gid="643"/>
   <tile gid="644"/>
   <tile gid="527"/>
   <tile gid="12"/>
   <tile gid="12"/>
   <tile gid="12"/>
   <tile gid="12"/>
   <tile gid="12"/>
   <tile gid="12"/>
   <tile gid="12"/>
   <tile gid="12"/>
   <tile gid="12"/>
   <tile gid="12"/>
   <tile gid="12"/>
   <tile gid="12"/>
   <tile gid="12"/>
   <tile gid="12"/>
   <tile gid="12"/>
   <tile gid="12"/>
   <tile gid="12"/>
   <tile gid="12"/>
   <tile gid="12"/>
   <tile gid="12"/>
   <tile gid="12"/>
   <tile gid="12"/>
   <tile gid="12"/>
   <tile gid="12"/>
   <tile gid="12"/>
   <tile gid="12"/>
   <tile gid="12"/>
   <tile gid="12"/>
   <tile gid="12"/>
   <tile gid="12"/>
   <tile gid="12"/>
   <tile gid="12"/>
   <tile gid="12"/>
   <tile gid="12"/>
   <tile gid="12"/>
   <tile gid="12"/>
   <tile gid="12"/>
   <tile gid="12"/>
   <tile gid="12"/>
   <tile gid="12"/>
   <tile gid="12"/>
   <tile gid="12"/>
   <tile gid="12"/>
   <tile gid="12"/>
   <tile gid="12"/>
   <tile gid="12"/>
   <tile gid="12"/>
   <tile gid="12"/>
   <tile gid="12"/>
   <tile gid="12"/>
  </data>
 </layer>
 <layer name="Слой тайлов 2" width="50" height="10" opacity="0.5">
  <data>
   <tile gid="0"/>
   <tile gid="0"/>
   <tile gid="0"/>
   <tile gid="0"/>
   <tile gid="0"/>
   <tile gid="0"/>
   <tile gid="0"/>
   <tile gid="0"/>
   <tile gid="0"/>
   <tile gid="0"/>
   <tile gid="0"/>
   <tile gid="0"/>
   <tile gid="0"/>
   <tile gid="0"/>
   <tile gid="0"/>
   <tile gid="0"/>
   <tile gid="0"/>
   <tile gid="0"/>
   <tile gid="0"/>
   <tile gid="0"/>
   <tile gid="0"/>
   <tile gid="0"/>
   <tile gid="0"/>
   <tile gid="0"/>
   <tile gid="0"/>
   <tile gid="0"/>
   <tile gid="0"/>
   <tile gid="0"/>
   <tile gid="0"/>
   <tile gid="0"/>
   <tile gid="0"/>
   <tile gid="0"/>
   <tile gid="0"/>
   <tile gid="0"/>
   <tile gid="0"/>
   <tile gid="0"/>
   <tile gid="0"/>
   <tile gid="0"/>
   <tile gid="0"/>
   <tile gid="0"/>
   <tile gid="0"/>
   <tile gid="0"/>
   <tile gid="0"/>
   <tile gid="0"/>
   <tile gid="0"/>
   <tile gid="0"/>
   <tile gid="0"/>
   <tile gid="0"/>
   <tile gid="0"/>
   <tile gid="0"/>
   <tile gid="0"/>
   <tile gid="0"/>
   <tile gid="0"/>
   <tile gid="0"/>
   <tile gid="0"/>
   <tile gid="0"/>
   <tile gid="0"/>
   <tile gid="0"/>
   <tile gid="0"/>
   <tile gid="0"/>
   <tile gid="0"/>
   <tile gid="0"/>
   <tile gid="0"/>
   <tile gid="0"/>
   <tile gid="0"/>
   <tile gid="0"/>
   <tile gid="0"/>
   <tile gid="0"/>
   <tile gid="0"/>
   <tile gid="0"/>
   <tile gid="0"/>
   <tile gid="0"/>
   <tile gid="0"/>
   <tile gid="0"/>
   <tile gid="0"/>
   <tile gid="0"/>
   <tile gid="0"/>
   <tile gid="0"/>
   <tile gid="0"/>
   <tile gid="0"/>
   <tile gid="0"/>
   <tile gid="0"/>
   <tile gid="0"/>
   <tile gid="0"/>
   <tile gid="0"/>
   <tile gid="0"/>
   <tile gid="0"/>
   <tile gid="0"/>
   <tile gid="0"/>
   <tile gid="0"/>
   <tile gid="0"/>
   <tile gid="0"/>
   <tile gid="0"/>
   <tile gid="0"/>
   <tile gid="0"/>
   <tile gid="0"/>
   <tile gid="0"/>
   <tile gid="0"/>
   <tile gid="0"/>
   <tile gid="0"/>
   <tile gid="0"/>
   <tile gid="0"/>
   <tile gid="0"/>
   <tile gid="0"/>
   <tile gid="0"/>
   <tile gid="0"/>
   <tile gid="0"/>
   <tile gid="0"/>
   <tile gid="0"/>
   <tile gid="0"/>
   <tile gid="0"/>
   <tile gid="0"/>
   <tile gid="0"/>
   <tile gid="0"/>
   <tile gid="0"/>
   <tile gid="0"/>
   <tile gid="0"/>
   <tile gid="0"/>
   <tile gid="0"/>
   <tile gid="0"/>
   <tile gid="0"/>
   <tile gid="0"/>
   <tile gid="0"/>
   <tile gid="0"/>
   <tile gid="0"/>
   <tile gid="0"/>
   <tile gid="0"/>
   <tile gid="0"/>
   <tile gid="0"/>
   <tile gid="0"/>
   <tile gid="0"/>
   <tile gid="0"/>
   <tile gid="0"/>
   <tile gid="0"/>
   <tile gid="0"/>
   <tile gid="0"/>
   <tile gid="0"/>
   <tile gid="0"/>
   <tile gid="123"/>
   <tile gid="123"/>
   <tile gid="123"/>
   <tile gid="123"/>
   <tile gid="123"/>
   <tile gid="123"/>
   <tile gid="123"/>
   <tile gid="123"/>
   <tile gid="123"/>
   <tile gid="123"/>
   <tile gid="123"/>
   <tile gid="0"/>
   <tile gid="0"/>
   <tile gid="0"/>
   <tile gid="0"/>
   <tile gid="0"/>
   <tile gid="0"/>
   <tile gid="0"/>
   <tile gid="0"/>
   <tile gid="0"/>
   <tile gid="0"/>
   <tile gid="0"/>
   <tile gid="0"/>
   <tile gid="0"/>
   <tile gid="0"/>
   <tile gid="0"/>
   <tile gid="0"/>
   <tile gid="0"/>
   <tile gid="0"/>
   <tile gid="0"/>
   <tile gid="0"/>
   <tile gid="0"/>
   <tile gid="0"/>
   <tile gid="0"/>
   <tile gid="0"/>
   <tile gid="0"/>
   <tile gid="0"/>
   <tile gid="0"/>
   <tile gid="0"/>
   <tile gid="0"/>
   <tile gid="0"/>
   <tile gid="0"/>
   <tile gid="0"/>
   <tile gid="0"/>
   <tile gid="0"/>
   <tile gid="0"/>
   <tile gid="0"/>
   <tile gid="0"/>
   <tile gid="0"/>
   <tile gid="0"/>
   <tile gid="123"/>
   <tile gid="123"/>
   <tile gid="123"/>
   <tile gid="123"/>
   <tile gid="123"/>
   <tile gid="123"/>
   <tile gid="123"/>
   <tile gid="123"/>
   <tile gid="123"/>
   <tile gid="123"/>
   <tile gid="123"/>
   <tile gid="0"/>
   <tile gid="0"/>
   <tile gid="0"/>
   <tile gid="0"/>
   <tile gid="0"/>
   <tile gid="0"/>
   <tile gid="0"/>
   <tile gid="0"/>
   <tile gid="0"/>
   <tile gid="0"/>
   <tile gid="0"/>
   <tile gid="0"/>
   <tile gid="0"/>
   <tile gid="0"/>
   <tile gid="0"/>
   <tile gid="0"/>
   <tile gid="0"/>
   <tile gid="0"/>
   <tile gid="0"/>
   <tile gid="0"/>
   <tile gid="0"/>
   <tile gid="0"/>
   <tile gid="0"/>
   <tile gid="0"/>
   <tile gid="0"/>
   <tile gid="0"/>
   <tile gid="0"/>
   <tile gid="0"/>
   <tile gid="0"/>
   <tile gid="0"/>
   <tile gid="0"/>
   <tile gid="0"/>
   <tile gid="0"/>
   <tile gid="0"/>
   <tile gid="0"/>
   <tile gid="0"/>
   <tile gid="0"/>
   <tile gid="0"/>
   <tile gid="0"/>
   <tile gid="123"/>
   <tile gid="123"/>
   <tile gid="123"/>
   <tile gid="123"/>
   <tile gid="123"/>
   <tile gid="123"/>
   <tile gid="123"/>
   <tile gid="123"/>
   <tile gid="123"/>
   <tile gid="123"/>
   <tile gid="123"/>
   <tile gid="0"/>
   <tile gid="0"/>
   <tile gid="0"/>
   <tile gid="0"/>
   <tile gid="0"/>
   <tile gid="0"/>
   <tile gid="0"/>
   <tile gid="0"/>
   <tile gid="0"/>
   <tile gid="0"/>
   <tile gid="0"/>
   <tile gid="0"/>
   <tile gid="0"/>
   <tile gid="0"/>
   <tile gid="0"/>
   <tile gid="0"/>
   <tile gid="0"/>
   <tile gid="0"/>
   <tile gid="0"/>
   <tile gid="0"/>
   <tile gid="0"/>
   <tile gid="0"/>
   <tile gid="0"/>
   <tile gid="0"/>
   <tile gid="0"/>
   <tile gid="0"/>
   <tile gid="0"/>
   <tile gid="0"/>
   <tile gid="0"/>
   <tile gid="0"/>
   <tile gid="0"/>
   <tile gid="0"/>
   <tile gid="0"/>
   <tile gid="0"/>
   <tile gid="0"/>
   <tile gid="0"/>
   <tile gid="0"/>
   <tile gid="0"/>
   <tile gid="0"/>
   <tile gid="123"/>
   <tile gid="123"/>
   <tile gid="123"/>
   <tile gid="123"/>
   <tile gid="123"/>
   <tile gid="123"/>
   <tile gid="123"/>
   <tile gid="123"/>
   <tile gid="123"/>
   <tile gid="123"/>
   <tile gid="123"/>
   <tile gid="0"/>
   <tile gid="0"/>
   <tile gid="0"/>
   <tile gid="0"/>
   <tile gid="0"/>
   <tile gid="0"/>
   <tile gid="0"/>
   <tile gid="0"/>
   <tile gid="0"/>
   <tile gid="0"/>
   <tile gid="0"/>
   <tile gid="0"/>
   <tile gid="0"/>
   <tile gid="0"/>
   <tile gid="0"/>
   <tile gid="0"/>
   <tile gid="0"/>
   <tile gid="0"/>
   <tile gid="0"/>
   <tile gid="0"/>
   <tile gid="0"/>
   <tile gid="0"/>
   <tile gid="0"/>
   <tile gid="0"/>
   <tile gid="0"/>
   <tile gid="0"/>
   <tile gid="0"/>
   <tile gid="0"/>
   <tile gid="0"/>
   <tile gid="0"/>
   <tile gid="0"/>
   <tile gid="0"/>
   <tile gid="0"/>
   <tile gid="0"/>
   <tile gid="0"/>
   <tile gid="0"/>
   <tile gid="0"/>
   <tile gid="0"/>
   <tile gid="0"/>
   <tile gid="123"/>
   <tile gid="123"/>
   <tile gid="123"/>
   <tile gid="123"/>
   <tile gid="123"/>
   <tile gid="123"/>
   <tile gid="123"/>
   <tile gid="123"/>
   <tile gid="123"/>
   <tile gid="123"/>
   <tile gid="123"/>
   <tile gid="0"/>
   <tile gid="0"/>
   <tile gid="0"/>
   <tile gid="0"/>
   <tile gid="0"/>
   <tile gid="0"/>
   <tile gid="0"/>
   <tile gid="0"/>
   <tile gid="0"/>
   <tile gid="0"/>
   <tile gid="0"/>
   <tile gid="0"/>
   <tile gid="0"/>
   <tile gid="0"/>
   <tile gid="0"/>
   <tile gid="0"/>
   <tile gid="0"/>
   <tile gid="0"/>
   <tile gid="0"/>
   <tile gid="0"/>
   <tile gid="0"/>
   <tile gid="0"/>
   <tile gid="0"/>
   <tile gid="0"/>
   <tile gid="0"/>
   <tile gid="0"/>
   <tile gid="0"/>
   <tile gid="0"/>
   <tile gid="0"/>
   <tile gid="0"/>
   <tile gid="0"/>
   <tile gid="0"/>
   <tile gid="0"/>
   <tile gid="0"/>
   <tile gid="0"/>
   <tile gid="0"/>
   <tile gid="0"/>
   <tile gid="0"/>
   <tile gid="0"/>
   <tile gid="123"/>
   <tile gid="123"/>
   <tile gid="123"/>
   <tile gid="123"/>
   <tile gid="123"/>
   <tile gid="123"/>
   <tile gid="123"/>
   <tile gid="123"/>
   <tile gid="123"/>
   <tile gid="123"/>
   <tile gid="123"/>
   <tile gid="0"/>
   <tile gid="0"/>
   <tile gid="0"/>
   <tile gid="0"/>
   <tile gid="0"/>
   <tile gid="0"/>
   <tile gid="0"/>
   <tile gid="0"/>
   <tile gid="0"/>
   <tile gid="0"/>
   <tile gid="0"/>
   <tile gid="0"/>
   <tile gid="0"/>
   <tile gid="0"/>
   <tile gid="0"/>
   <tile gid="0"/>
   <tile gid="0"/>
   <tile gid="0"/>
   <tile gid="0"/>
   <tile gid="0"/>
   <tile gid="0"/>
   <tile gid="0"/>
   <tile gid="0"/>
   <tile gid="0"/>
   <tile gid="0"/>
   <tile gid="0"/>
   <tile gid="0"/>
   <tile gid="0"/>
   <tile gid="0"/>
   <tile gid="0"/>
   <tile gid="0"/>
   <tile gid="0"/>
   <tile gid="0"/>
   <tile gid="0"/>
   <tile gid="0"/>
   <tile gid="0"/>
   <tile gid="0"/>
   <tile gid="0"/>
   <tile gid="0"/>
   <tile gid="123"/>
   <tile gid="123"/>
   <tile gid="123"/>
   <tile gid="123"/>
   <tile gid="123"/>
   <tile gid="123"/>
   <tile gid="123"/>
   <tile gid="123"/>
   <tile gid="123"/>
   <tile gid="123"/>
   <tile gid="123"/>
   <tile gid="0"/>
   <tile gid="0"/>
   <tile gid="0"/>
   <tile gid="0"/>
   <tile gid="0"/>
   <tile gid="0"/>
   <tile gid="0"/>
   <tile gid="0"/>
   <tile gid="0"/>
   <tile gid="0"/>
   <tile gid="0"/>
   <tile gid="0"/>
   <tile gid="0"/>
   <tile gid="0"/>
   <tile gid="0"/>
   <tile gid="0"/>
   <tile gid="0"/>
   <tile gid="0"/>
   <tile gid="0"/>
   <tile gid="0"/>
   <tile gid="0"/>
   <tile gid="0"/>
   <tile gid="0"/>
   <tile gid="0"/>
   <tile gid="0"/>
   <tile gid="0"/>
   <tile gid="0"/>
   <tile gid="0"/>
   <tile gid="0"/>
   <tile gid="0"/>
   <tile gid="0"/>
   <tile gid="0"/>
   <tile gid="0"/>
   <tile gid="0"/>
   <tile gid="0"/>
   <tile gid="0"/>
   <tile gid="0"/>
   <tile gid="0"/>
   <tile gid="0"/>
   <tile gid="0"/>
   <tile gid="0"/>
   <tile gid="0"/>
   <tile gid="0"/>
   <tile gid="0"/>
   <tile gid="0"/>
   <tile gid="0"/>
   <tile gid="0"/>
   <tile gid="0"/>
   <tile gid="0"/>
   <tile gid="0"/>
   <tile gid="0"/>
  </data>
 </layer>
</map>
